src/assets/whyussvg2.svg

"<svg xmlns=\"http://www.w3.org/2000/svg\" viewBox=\"0 0 48 48\" fill=\"none\"><path d=\"M24.9375 7.125C24.42 7.125 24 7.54504 24 8.0625C24 8.57996 24.42 9 24.9375 9C25.455 9 25.875 8.57996 25.875 8.0625C25.875 7.54504 25.455 7.125 24.9375 7.125Z\" fill=\"#CCCCCC\"></path><path d=\"M21.1875 7.125H14.0625C13.5447 7.125 13.125 7.54468 13.125 8.0625C13.125 8.58032 13.5447 9 14.0625 9H21.1875C21.7053 9 22.125 8.58032 22.125 8.0625C22.125 7.54468 21.7053 7.125 21.1875 7.125Z\" fill=\"#CCCCCC\"></path><path d=\"M35.8125 7.125H28.6875C28.1697 7.125 27.75 7.54468 27.75 8.0625C27.75 8.58032 28.1697 9 28.6875 9H35.8125C36.3303 9 36.75 8.58032 36.75 8.0625C36.75 7.54468 36.3303 7.125 35.8125 7.125Z\" fill=\"#CCCCCC\"></path><path d=\"M0.9375 42.75C0.419678 42.75 0 43.1697 0 43.6875C0 44.2053 0.419678 44.625 0.9375 44.625H47.0625C47.5803 44.625 48 44.2053 48 43.6875C48 43.1697 47.5803 42.75 47.0625 42.75H46.125C46.125 41.9476 46.125 15.1934 46.125 13.6875C46.125 12.1366 44.8634 10.875 43.3125 10.875H42.375V6.1875C42.375 4.6366 41.1134 3.375 39.5625 3.375H10.3125C8.7616 3.375 7.5 4.6366 7.5 6.1875V10.875H6.5625C5.0116 10.875 3.75 12.1366 3.75 13.6875V17.2163L0.098877 24.5182C0.0369873 24.642 0 24.7888 0 24.9375V26.8125C0 28.2916 0.706787 29.681 1.875 30.5607V42.75H0.9375ZM3.28198 29.2493C2.41406 28.7472 1.875 27.8137 1.875 26.8125V25.875H7.5V26.8125C7.5 28.3634 6.2384 29.625 4.6875 29.625C4.19348 29.625 3.70752 29.495 3.28198 29.2493ZM14.1724 18.375L14.8755 24H9.49951L10.2026 18.375H14.1724ZM44.25 27.75H31.7798C31.8424 27.4424 31.875 27.1285 31.875 26.8125V24.9375C31.875 24.7925 31.8402 24.6464 31.7761 24.5182L28.7043 18.375H44.25V27.75ZM26.6082 18.375L29.4207 24H24.1696L22.7633 18.375H26.6082ZM9.375 25.875H15V26.8125C15 28.3634 13.7384 29.625 12.1875 29.625C10.7227 29.625 9.49072 28.4824 9.38306 27.0264C9.37756 26.9517 9.375 26.8799 9.375 26.8125V25.875ZM16.875 25.875H22.5V26.8125C22.5 28.3634 21.2384 29.625 19.6875 29.625C18.1366 29.625 16.875 28.3634 16.875 26.8125V25.875ZM20.8304 18.375L22.2367 24H16.7651L16.062 18.375H20.8304ZM9.375 30.5541C10.1627 31.1477 11.139 31.5 12.1875 31.5C13.7194 31.5 15.0817 30.7614 15.9375 29.6217C16.7933 30.7614 18.1556 31.5 19.6875 31.5C20.7418 31.5 21.7159 31.1499 22.5 30.5599V37.125H9.375V30.5541ZM24.375 25.875H30V26.8125C30 27.3065 29.87 27.7925 29.6243 28.218C29.3771 28.6458 29.0208 29.0021 28.5938 29.2489C28.1675 29.495 27.6815 29.625 27.1875 29.625C25.6366 29.625 24.375 28.3634 24.375 26.8125V25.875ZM39 42.75H35.25V35.25H39V42.75ZM40.875 42.75V34.3125C40.875 33.7947 40.4553 33.375 39.9375 33.375H34.3125C33.7947 33.375 33.375 33.7947 33.375 34.3125V42.75H30V30.561C30.3545 30.2948 30.6698 29.9795 30.936 29.625H44.25V42.75H40.875ZM9.375 6.1875C9.375 5.67041 9.79541 5.25 10.3125 5.25H39.5625C40.0796 5.25 40.5 5.67041 40.5 6.1875V10.875H9.375V6.1875ZM5.625 13.6875C5.625 13.1704 6.04541 12.75 6.5625 12.75H43.3125C43.8296 12.75 44.25 13.1704 44.25 13.6875V16.5H5.625V13.6875ZM5.26685 18.375H8.31299L7.60986 24H2.45435L5.26685 18.375ZM3.75 31.4048C4.05762 31.4674 4.37146 31.5 4.6875 31.5C5.74182 31.5 6.71588 31.1499 7.5 30.5599V37.125H3.75V31.4048Z\" fill=\"#CCCCCC\"></path></svg>"

<svg xmlns="http://www.w3.org/2000/svg" fill="none" viewBox="0 0 48 48"><path fill="#CCC" d="M24.938 7.125a.938.938 0 1 0 0 1.876.938.938 0 0 0 0-1.876ZM21.188 7.125h-7.125a.937.937 0 1 0 0 1.875h7.124a.937.937 0 1 0 0-1.875ZM35.813 7.125h-7.126a.937.937 0 1 0 0 1.875h7.125a.937.937 0 1 0 0-1.875Z"/><path fill="#CCC" d="M.938 42.75a.937.937 0 1 0 0 1.875h46.124a.937.937 0 1 0 0-1.875h-.937V13.687a2.816 2.816 0 0 0-2.813-2.812h-.937V6.187a2.816 2.816 0 0 0-2.813-2.812h-29.25A2.816 2.816 0 0 0 7.5 6.188v4.687h-.938a2.816 2.816 0 0 0-2.812 2.813v3.528L.099 24.518a.95.95 0 0 0-.099.42v1.875c0 1.479.707 2.868 1.875 3.748V42.75H.937Zm2.344-13.5a2.824 2.824 0 0 1-1.407-2.438v-.937H7.5v.938a2.816 2.816 0 0 1-4.218 2.436Zm10.89-10.875L14.876 24H9.5l.703-5.625h3.97ZM44.25 27.75H31.78a4.7 4.7 0 0 0 .095-.938v-1.875a.946.946 0 0 0-.099-.419l-3.072-6.143H44.25v9.375Zm-17.642-9.375L29.421 24H24.17l-1.407-5.625h3.845Zm-17.233 7.5H15v.938a2.816 2.816 0 0 1-2.813 2.812 2.821 2.821 0 0 1-2.812-2.813v-.937Zm7.5 0H22.5v.938a2.816 2.816 0 0 1-2.813 2.812 2.816 2.816 0 0 1-2.812-2.813v-.937Zm3.955-7.5L22.237 24h-5.472l-.703-5.625h4.768ZM9.375 30.555a4.665 4.665 0 0 0 2.813.945 4.683 4.683 0 0 0 3.75-1.878 4.683 4.683 0 0 0 6.562.938v6.565H9.375v-6.57Zm15-4.68H30v.938a2.814 2.814 0 0 1-2.813 2.812 2.816 2.816 0 0 1-2.812-2.813v-.937ZM39 42.75h-3.75v-7.5H39v7.5Zm1.875 0v-8.438a.937.937 0 0 0-.938-.937h-5.624a.937.937 0 0 0-.938.938v8.437H30V30.561a4.7 4.7 0 0 0 .936-.936H44.25V42.75h-3.375ZM9.375 6.187c0-.517.42-.937.938-.937h29.25c.517 0 .937.42.937.938v4.687H9.375V6.187Zm-3.75 7.5c0-.517.42-.937.938-.937h36.75c.517 0 .937.42.937.938V16.5H5.625v-2.813Zm-.358 4.688h3.046L7.61 24H2.454l2.813-5.625ZM3.75 31.405a4.663 4.663 0 0 0 3.75-.845v7.503c0 .517.42.937.938.937h15c.517 0 .937-.42.937-.938V30.56a4.663 4.663 0 0 0 3.75.845V42.75H3.75V31.405Z"/></svg>
